www/images/logos/matrix-dark.svg

<svg width="28" height="32" viewBox="0 0 28 32" fill="none" xmlns="http://www.w3.org/2000/svg">
<g clip-path="url(#clip0_101_2)">
<path d="M27.0049 31.205V0.705022H24.8149V-0.0269775H27.8549V31.973H24.8149V31.241L27.0049 31.205Z" fill="white"/>
<path d="M8.13499 10.405V11.945H8.17899C8.56399 11.381 9.07199 10.915 9.66899 10.575C10.249 10.252 10.919 10.09 11.659 10.09C12.379 10.09 13.039 10.23 13.629 10.51C14.224 10.789 14.679 11.281 14.989 11.99C15.327 11.49 15.785 11.049 16.369 10.67C16.949 10.287 17.639 10.096 18.429 10.096C19.031 10.096 19.589 10.17 20.099 10.316C20.613 10.464 21.053 10.699 21.419 11.023C21.785 11.346 22.072 11.769 22.278 12.293C22.483 12.815 22.586 13.443 22.586 14.183V21.813H19.456V15.353C19.456 14.97 19.441 14.61 19.412 14.273C19.3911 13.966 19.309 13.666 19.17 13.391C19.037 13.14 18.834 12.933 18.586 12.795C18.329 12.649 17.98 12.575 17.536 12.575C17.096 12.575 16.74 12.66 16.466 12.828C16.194 12.998 15.981 13.218 15.827 13.49C15.668 13.777 15.563 14.092 15.519 14.417C15.467 14.764 15.441 15.114 15.441 15.467V21.817H12.311V15.417C12.311 15.079 12.304 14.744 12.29 14.417C12.2786 14.103 12.2151 13.794 12.102 13.501C11.994 13.224 11.802 12.989 11.552 12.828C11.294 12.66 10.916 12.575 10.412 12.575C10.214 12.5833 10.018 12.617 9.82799 12.675C9.56999 12.7495 9.32999 12.877 9.12299 13.049C8.89499 13.233 8.70099 13.498 8.53899 13.843C8.37799 14.189 8.29699 14.641 8.29699 15.203V21.823H5.16699V10.423L8.13499 10.405Z" fill="white"/>
<path d="M0.840967 0.736994V31.237H3.03097V31.969H-0.0090332V-0.0310059H3.02097V0.700994L0.840967 0.736994Z" fill="white"/>
</g>
<defs>
<clipPath id="clip0_101_2">
<rect width="27.9" height="32" fill="white"/>
</clipPath>
</defs>
</svg>

<svg xmlns="http://www.w3.org/2000/svg" width="28" height="32" fill="none"><g fill="#fff" clip-path="url(#a)"><path d="M27.005 31.205V.705h-2.19v-.732h3.04v32h-3.04v-.732zm-18.87-20.8v1.54h.044a4.486 4.486 0 0 1 1.49-1.37c.58-.323 1.25-.485 1.99-.485.72 0 1.38.14 1.97.42.595.279 1.05.771 1.36 1.48.338-.5.796-.941 1.38-1.32.58-.383 1.27-.574 2.06-.574.602 0 1.16.074 1.67.22.514.148.954.383 1.32.707.366.323.653.746.859 1.27.205.522.308 1.15.308 1.89v7.63h-3.13v-6.46c0-.383-.015-.743-.044-1.08a2.302 2.302 0 0 0-.242-.882 1.47 1.47 0 0 0-.584-.596c-.257-.146-.606-.22-1.05-.22-.44 0-.796.085-1.07.253-.272.17-.485.39-.639.662a2.649 2.649 0 0 0-.308.927 7.075 7.075 0 0 0-.078 1.05v6.35h-3.13v-6.4c0-.338-.007-.673-.021-1a2.826 2.826 0 0 0-.188-.916 1.408 1.408 0 0 0-.55-.673c-.258-.168-.636-.253-1.14-.253a2.334 2.334 0 0 0-.584.1 1.95 1.95 0 0 0-.705.374c-.228.184-.422.449-.584.794-.161.346-.242.798-.242 1.36v6.62h-3.13v-11.4zM.841.737v30.5h2.19v.732h-3.04v-32h3.03v.732z"/></g><defs><clipPath id="a"><path fill="#fff" d="M0 0h27.9v32H0z"/></clipPath></defs></svg>
